icons/ArrowCornerDownRight_filled.svg

<svg width="24" height="24" viewBox="0 0 24 24" fill="none" xmlns="http://www.w3.org/2000/svg">
<path fill-rule="evenodd" clip-rule="evenodd" d="M19.8839,15.1161c0.4881,0.4882 0.4881,1.2796 0,1.7678l-4,4c-0.4882,0.4881 -1.2796,0.4881 -1.7678,0c-0.4881,-0.4882 -0.4881,-1.2796 0,-1.7678l1.8661,-1.8661h-8.4822c-1.79493,0 -3.25,-1.4551 -3.25,-3.25v-11c0,-0.69036 0.55964,-1.25 1.25,-1.25c0.69036,0 1.25,0.55964 1.25,1.25v11c0,0.4142 0.33579,0.75 0.75,0.75h8.4822l-1.8661,-1.8661c-0.4881,-0.4882 -0.4881,-1.2796 0,-1.7678c0.4882,-0.4881 1.2796,-0.4881 1.7678,0z" fill="#002B51"/>
</svg>

<svg width="24" height="24" viewBox="0 0 24 24" fill="none" xmlns="http://www.w3.org/2000/svg">
<path fill-rule="evenodd" clip-rule="evenodd" d="M19.8839 15.1161C20.372 15.6043 20.372 16.3957 19.8839 16.8839L15.8839 20.8839C15.3957 21.372 14.6043 21.372 14.1161 20.8839C13.628 20.3957 13.628 19.6043 14.1161 19.1161L15.9822 17.25H7.5C5.70507 17.25 4.25 15.7949 4.25 14V3C4.25 2.30964 4.80964 1.75 5.5 1.75C6.19036 1.75 6.75 2.30964 6.75 3V14C6.75 14.4142 7.08579 14.75 7.5 14.75H15.9822L14.1161 12.8839C13.628 12.3957 13.628 11.6043 14.1161 11.1161C14.6043 10.628 15.3957 10.628 15.8839 11.1161L19.8839 15.1161Z" fill="#002B51"/>
</svg>
